dist/images/logo_white.svg

<svg width="98" height="36" viewBox="0 0 98 36" fill="none" xmlns="http://www.w3.org/2000/svg">
<g clip-path="url(#clip0_977_8695)">
<path fill-rule="evenodd" clip-rule="evenodd" d="M77.9336 12.394C77.9369 12.7135 78.0103 12.9792 78.147 13.191C78.277 13.3982 78.4617 13.5648 78.6804 13.6719C78.897 13.776 79.1339 13.83 79.3738 13.83C79.6137 13.83 79.8506 13.776 80.0673 13.6719C80.2859 13.5647 80.4706 13.3982 80.6007 13.191C80.7374 12.9792 80.8107 12.7135 80.814 12.394C80.8107 12.0745 80.7374 11.8089 80.6007 11.5937C80.4695 11.3883 80.285 11.2231 80.0673 11.1161C79.8512 11.0099 79.6141 10.9547 79.3738 10.9547C79.1335 10.9547 78.8964 11.0099 78.6804 11.1161C78.4626 11.223 78.2781 11.3882 78.147 11.5937C78.0103 11.8089 77.9369 12.0745 77.9336 12.394ZM92.439 12.6563V15.219H90.5987V17.3377H92.439V21.6356C92.4423 22.4629 92.5923 23.1523 92.8823 23.6971C93.1724 24.2453 93.5814 24.6511 94.1093 24.9146C94.6394 25.1769 95.2629 25.2946 95.9796 25.2677C96.2128 25.2613 96.4454 25.2422 96.6764 25.2105C96.897 25.1805 97.1153 25.1356 97.3298 25.0759C97.5571 25.0106 97.7808 24.9332 98 24.844L97.3199 22.7454C97.1333 22.8382 96.9378 22.9114 96.7365 22.964C96.5419 23.0176 96.3413 23.0459 96.1396 23.0481C95.8829 23.0481 95.6595 22.9976 95.4695 22.8934C95.2765 22.7861 95.1206 22.6218 95.0228 22.4226C94.916 22.2141 94.8594 21.9517 94.8594 21.6356V17.3377H97.5999V15.219H94.8794V12.394L92.439 12.6563ZM90.0071 16.2279C89.6304 15.8949 89.2437 15.6326 88.8469 15.4409C88.4498 15.2466 88.0279 15.1086 87.5933 15.0307C87.1221 14.9497 86.6445 14.9114 86.1665 14.9163C85.7898 14.9173 85.4139 14.9511 85.043 15.0172C84.6592 15.0874 84.2837 15.1979 83.9226 15.3468C83.5715 15.4921 83.2444 15.6906 82.9525 15.9353C82.6647 16.177 82.4307 16.4773 82.2658 16.8165C82.0958 17.1628 82.009 17.563 82.0057 18.0237C82.009 18.4743 82.0924 18.8644 82.2524 19.1974C82.4071 19.5241 82.63 19.8132 82.9059 20.0449C83.1894 20.2805 83.5063 20.4721 83.846 20.6133C84.2011 20.7617 84.5696 20.8754 84.9462 20.9529C85.3226 21.0296 85.7034 21.0824 86.0864 21.1109C86.5532 21.1378 86.9299 21.1883 87.2166 21.2657C87.5067 21.343 87.7167 21.4573 87.8501 21.602C87.9835 21.7466 88.0501 21.9316 88.0468 22.1602C88.0455 22.3975 87.9536 22.6252 87.79 22.7958C87.6234 22.9774 87.4067 23.1153 87.1366 23.2128C86.8576 23.313 86.5625 23.3597 86.2665 23.3507C85.9646 23.3417 85.6643 23.3034 85.3696 23.2364C85.0447 23.1641 84.726 23.0663 84.4162 22.9438C84.1122 22.8232 83.8189 22.677 83.5393 22.5066C83.2692 22.3385 83.0459 22.1569 82.8658 21.9585L81.6656 23.7139C82.0257 24.0906 82.3924 24.3956 82.7658 24.6287C83.1212 24.8559 83.5031 25.0377 83.9028 25.1701C84.2792 25.2931 84.6667 25.3787 85.0596 25.4257C85.4469 25.4706 85.8366 25.4919 86.2264 25.4895C86.9333 25.4863 87.55 25.3988 88.0802 25.224C88.6102 25.0525 89.0514 24.8159 89.4037 24.5143C89.7571 24.2116 90.0238 23.8653 90.2005 23.4718C90.378 23.0791 90.469 22.6523 90.4673 22.2208C90.4639 21.6962 90.3772 21.2489 90.2072 20.8856C90.0371 20.5224 89.8071 20.2231 89.517 19.9911C89.2222 19.7564 88.891 19.5723 88.5368 19.4463C88.1679 19.3137 87.7872 19.2169 87.4001 19.157C87.0066 19.0965 86.6232 19.0528 86.2465 19.0326C85.6197 18.9923 85.1529 18.8813 84.8529 18.6996C84.5528 18.518 84.4028 18.2659 84.4062 17.943C84.4095 17.6268 84.5628 17.3847 84.8696 17.2133C85.1796 17.0418 85.623 16.9543 86.2065 16.9543C86.6509 16.9448 87.0939 17.0108 87.5167 17.1493C87.9201 17.2839 88.2968 17.5125 88.6469 17.8421L90.0071 16.2279V16.2279ZM80.594 15.1584V25.1466H78.1536V15.1584H80.594ZM74.1815 11.0421V25.1466H76.6019V11.0421H74.1815ZM70.2894 16.5709C70.0954 16.2335 69.833 15.9413 69.5193 15.7133C69.1879 15.4674 68.8184 15.2787 68.4257 15.155C68.0129 15.0224 67.5821 14.9555 67.1488 14.9566C66.4254 14.9533 65.753 15.0609 65.1318 15.2795C64.5249 15.489 63.9684 15.8247 63.4981 16.2648C63.0314 16.702 62.6669 17.2469 62.4047 17.8993C62.1446 18.5484 62.0112 19.305 62.0079 20.1627C62.0112 21.037 62.139 21.8037 62.3912 22.4629C62.6447 23.1254 62.9992 23.6781 63.4548 24.1208C63.9083 24.5682 64.4439 24.9023 65.0618 25.1231C65.6786 25.345 66.3543 25.4537 67.0888 25.4493C67.3877 25.4411 67.6849 25.4016 67.9756 25.3316C68.292 25.2549 68.5993 25.1444 68.8924 25.002C69.1876 24.8593 69.4624 24.6772 69.7093 24.4605C69.9501 24.2453 70.1471 23.9849 70.2894 23.6938L70.4094 25.1466H72.7098V15.1988H70.3694L70.2894 16.5709ZM67.3689 17.156C67.8489 17.1594 68.269 17.2468 68.6292 17.4151C68.9753 17.5731 69.2826 17.8062 69.5293 18.0977C69.7689 18.3828 69.9522 18.7116 70.0694 19.0662C70.3094 19.784 70.3094 20.5614 70.0694 21.2792C69.9515 21.6335 69.7682 21.9621 69.5293 22.2477C69.2826 22.5391 68.9753 22.7722 68.6292 22.9304C68.269 23.0985 67.8489 23.1859 67.3689 23.1893C66.9796 23.1914 66.5932 23.1219 66.2287 22.9842C65.8832 22.8507 65.568 22.6482 65.3019 22.3889C65.0293 22.12 64.8167 21.7955 64.6784 21.4372C64.5284 21.0605 64.4516 20.6367 64.4484 20.1626C64.4516 19.6884 64.5283 19.2646 64.6784 18.8913C64.8168 18.535 65.0295 18.2127 65.3019 17.9463C65.5683 17.6891 65.8836 17.4889 66.2287 17.3578C66.5935 17.2213 66.9798 17.1529 67.3689 17.156ZM56.1554 12.6563V15.219H54.315V17.3377H56.1554V21.6356C56.1587 22.4629 56.3088 23.1523 56.5988 23.6971C56.8888 24.2453 57.2978 24.6511 57.8257 24.9146C58.3558 25.1769 58.9793 25.2946 59.696 25.2677C59.9292 25.2613 60.1618 25.2422 60.3929 25.2105C60.6134 25.1805 60.8317 25.1355 61.0463 25.0759C61.2736 25.0106 61.4972 24.9332 61.7164 24.844L61.0363 22.7454C60.8497 22.8382 60.6542 22.9114 60.4528 22.964C60.2583 23.0176 60.0577 23.0459 59.856 23.0481C59.5993 23.0481 59.376 22.9976 59.186 22.8934C58.993 22.7861 58.8371 22.6218 58.7392 22.4226C58.6324 22.2141 58.5759 21.9517 58.5759 21.6356V17.3377H61.3163V15.219H58.5958V12.394L56.1554 12.6563ZM53.5435 15.1584V25.1466H51.103V15.1584H53.5435ZM41.6299 29.3033V23.9762C41.805 24.2431 42.0291 24.4737 42.29 24.6556C42.5534 24.8392 42.8406 24.9852 43.1436 25.0894C43.4403 25.1951 43.7461 25.2728 44.057 25.3215C44.3394 25.3656 44.6247 25.388 44.9105 25.3887C45.7006 25.3853 46.4075 25.2509 47.0208 24.9852C47.6377 24.7194 48.16 24.3495 48.5878 23.8754C49.0169 23.3943 49.3467 22.8318 49.558 22.2208C49.778 21.5919 49.8914 20.9125 49.8914 20.1828C49.8881 19.4463 49.7669 18.7636 49.528 18.1347C49.2879 17.5058 48.9479 16.9543 48.5012 16.4834C48.0577 16.0093 47.5242 15.6427 46.9042 15.377C46.2841 15.1147 45.5928 14.9813 44.8305 14.9768C44.4379 14.978 44.0474 15.0346 43.6703 15.1449C43.2724 15.2575 42.8944 15.4323 42.5501 15.6629C42.1884 15.9031 41.876 16.2114 41.6299 16.5709L41.4699 15.1987H39.1894V29.3033H41.6299ZM44.6505 23.0077C44.2337 23.0043 43.8536 22.9304 43.5135 22.7858C43.1806 22.6447 42.879 22.4377 42.6268 22.1771C42.3804 21.9176 42.1857 21.6128 42.0534 21.2792C41.9172 20.93 41.8482 20.5579 41.8499 20.1828C41.847 19.8087 41.9114 19.4373 42.0399 19.0864C42.1627 18.7533 42.3496 18.4481 42.59 18.1884C42.8301 17.9295 43.1235 17.7278 43.4702 17.5798C43.817 17.4352 44.2104 17.3612 44.6505 17.3578C45.0905 17.3612 45.4839 17.4352 45.8307 17.5798C46.1774 17.7278 46.4708 17.9295 46.7108 18.1884C46.9513 18.4481 47.1382 18.7533 47.2609 19.0864C47.3895 19.4373 47.4539 19.8087 47.451 20.1828C47.4527 20.5579 47.3837 20.93 47.2476 21.2792C47.1165 21.6134 46.9217 21.9185 46.6741 22.1771C46.4225 22.4385 46.1208 22.6456 45.7873 22.7858C45.4472 22.9304 45.0672 23.0043 44.6505 23.0077ZM35.2973 16.5709C35.1034 16.2335 34.841 15.9413 34.5273 15.7133C34.1959 15.4674 33.8264 15.2787 33.4337 15.155C33.0208 15.0224 32.5901 14.9555 32.1568 14.9566C31.4334 14.9533 30.761 15.0609 30.1398 15.2795C29.5329 15.4891 28.9764 15.8247 28.5061 16.2648C28.0394 16.702 27.6749 17.2469 27.4127 17.8993C27.1526 18.5484 27.0192 19.305 27.0159 20.1627C27.0192 21.037 27.147 21.8037 27.3993 22.4629C27.6527 23.1254 28.0071 23.6781 28.4628 24.1208C28.9163 24.5682 29.4519 24.9023 30.0698 25.1231C30.6866 25.345 31.3623 25.4537 32.0968 25.4493C32.3957 25.4411 32.6929 25.4016 32.9836 25.3316C33.3 25.2549 33.6073 25.1444 33.9004 25.002C34.1956 24.8593 34.4703 24.6772 34.7173 24.4605C34.9581 24.2453 35.1551 23.9849 35.2973 23.6938L35.4174 25.1466H37.7178V15.1988H35.3774L35.2973 16.5709V16.5709ZM32.3768 17.156C32.8569 17.1594 33.277 17.2468 33.6371 17.4151C33.9833 17.5731 34.2906 17.8062 34.5373 18.0977C34.7769 18.3828 34.9602 18.7116 35.0774 19.0662C35.3174 19.784 35.3174 20.5614 35.0774 21.2792C34.9595 21.6335 34.7762 21.9621 34.5373 22.2477C34.2906 22.5391 33.9832 22.7722 33.6371 22.9304C33.277 23.0985 32.8569 23.1859 32.3768 23.1893C31.9876 23.1914 31.6012 23.1219 31.2367 22.9842C30.8912 22.8507 30.576 22.6482 30.3099 22.3889C30.0373 22.12 29.8247 21.7955 29.6863 21.4372C29.5364 21.0605 29.4596 20.6367 29.4564 20.1627C29.4596 19.6884 29.5363 19.2646 29.6863 18.8913C29.8248 18.535 30.0375 18.2127 30.3099 17.9463C30.5763 17.6891 30.8916 17.4889 31.2367 17.3578C31.6014 17.2213 31.9878 17.1529 32.3768 17.156ZM19.4313 19.5083L23.1055 15.0874H26.3372V15.2438L21.8882 20.2672L26.601 25.4987H23.1919L19.4313 21.1158V25.4987H16.731V3.06398C9.05246 3.63888 2.99737 10.1069 2.99737 17.9993C2.99737 22.3654 4.85086 26.2953 7.80679 29.033V32.8823C3.09475 29.6416 0 24.1847 0 17.9993C0 7.44218 9.11647 -0.868753 19.4606 0.0728135L19.4313 19.5083H19.4313ZM50.883 12.394C50.8864 12.7135 50.9597 12.9792 51.0964 13.191C51.2264 13.3982 51.4112 13.5647 51.6298 13.6719C51.8465 13.776 52.0834 13.83 52.3233 13.83C52.5632 13.83 52.8001 13.776 53.0167 13.6719C53.2354 13.5648 53.4201 13.3982 53.5501 13.191C53.6868 12.9792 53.7602 12.7135 53.7635 12.394C53.7602 12.0745 53.6868 11.8089 53.5501 11.5937C53.419 11.3882 53.2345 11.223 53.0167 11.1161C52.8007 11.0099 52.5636 10.9547 52.3233 10.9547C52.083 10.9547 51.8458 11.0099 51.6298 11.1161C51.4121 11.2231 51.2276 11.3883 51.0964 11.5937C50.9597 11.8089 50.8864 12.0745 50.883 12.394Z" fill="white"/>
<path fill-rule="evenodd" clip-rule="evenodd" d="M32.1267 13.8952C30.7481 9.00655 26.9689 5.13642 22.1563 3.66487V0.529297C28.7475 2.17989 33.8925 7.52676 35.3033 14.2619C34.5024 13.8812 33.2603 13.6741 32.1675 13.8952H32.1267ZM13.1893 15.0891V32.2249C14.6913 32.7244 16.263 32.9783 17.8445 32.9767C23.0437 32.9767 27.6187 30.279 30.271 26.1965C31.205 26.691 32.3811 26.7904 33.4922 26.6569C30.4574 32.2252 24.5874 36.0002 17.8445 36.0002C15.3129 36.0036 12.8097 35.4616 10.5025 34.4104C10.6643 27.982 10.4931 21.5223 10.4931 15.0891H13.1893ZM10.25 12.0348C10.2537 12.3878 10.3347 12.6813 10.4858 12.9155C10.6295 13.1444 10.8336 13.3285 11.0753 13.4468C11.3146 13.5618 11.5763 13.6214 11.8414 13.6214C12.1064 13.6214 12.3682 13.5618 12.6075 13.4468C12.849 13.3283 13.053 13.1443 13.1968 12.9155C13.3479 12.6813 13.4289 12.3878 13.4325 12.0348C13.4289 11.6818 13.3479 11.3884 13.1968 11.1505C13.0518 10.9237 12.848 10.7413 12.6075 10.623C12.3689 10.5056 12.1069 10.4446 11.8414 10.4446C11.5759 10.4446 11.3139 10.5056 11.0753 10.623C10.8346 10.7411 10.6308 10.9236 10.4858 11.1505C10.3347 11.3884 10.2537 11.6818 10.25 12.0348Z" fill="white"/>
</g>
<defs>
<clipPath id="clip0_977_8695">
<rect width="98" height="36" fill="white"/>
</clipPath>
</defs>
</svg>

<svg width="98" height="36" fill="none" xmlns="http://www.w3.org/2000/svg"><g clip-path="url(#clip0_977_8695)" fill-rule="evenodd" clip-rule="evenodd" fill="#fff"><path d="M77.934 12.394c.003.32.076.585.213.797.13.207.315.374.533.48a1.6 1.6 0 001.387 0c.219-.106.404-.273.534-.48.136-.212.21-.478.213-.797a1.493 1.493 0 00-.213-.8 1.329 1.329 0 00-.534-.478 1.572 1.572 0 00-1.387 0 1.326 1.326 0 00-.533.478c-.137.215-.21.48-.213.8zm14.505.262v2.563h-1.84v2.119h1.84v4.298c.003.827.153 1.516.443 2.061.29.548.7.954 1.227 1.218.53.262 1.154.38 1.87.353a6.42 6.42 0 00.697-.058c.221-.03.44-.074.654-.134.227-.065.45-.143.67-.232l-.68-2.099a3.03 3.03 0 01-.583.219 2.344 2.344 0 01-.597.084c-.257 0-.48-.05-.67-.155a1.086 1.086 0 01-.447-.47c-.107-.209-.164-.471-.164-.787v-4.298h2.74v-2.119h-2.72v-2.825l-2.44.262zm-2.432 3.572a5.128 5.128 0 00-1.16-.787 4.765 4.765 0 00-1.254-.41 7.942 7.942 0 00-1.427-.115 6.502 6.502 0 00-1.123.101c-.384.07-.76.18-1.12.33a3.731 3.731 0 00-.97.588 2.681 2.681 0 00-.687.882c-.17.346-.257.746-.26 1.207.003.45.086.84.246 1.173.155.327.378.616.654.848.283.235.6.427.94.568.355.149.724.262 1.1.34.377.077.757.13 1.14.158.467.027.844.077 1.13.155.29.077.5.191.634.336.134.145.2.33.197.558a.926.926 0 01-.257.636c-.167.181-.383.32-.653.417-.28.1-.575.147-.87.138a4.673 4.673 0 01-.897-.115 6.334 6.334 0 01-.954-.292 5.781 5.781 0 01-.877-.437 3.139 3.139 0 01-.673-.549l-1.2 1.756c.36.377.726.682 1.1.915.355.227.737.409 1.137.541a6.03 6.03 0 001.157.256c.387.045.777.066 1.166.064.707-.004 1.324-.091 1.854-.266.53-.172.971-.408 1.324-.71a2.97 2.97 0 00.797-1.042c.177-.393.268-.82.266-1.251-.003-.525-.09-.972-.26-1.335-.17-.364-.4-.663-.69-.895a3.407 3.407 0 00-.98-.545 6.133 6.133 0 00-1.137-.289c-.393-.06-.777-.104-1.154-.124-.626-.04-1.093-.152-1.393-.333-.3-.182-.45-.434-.447-.757.003-.316.157-.558.464-.73.31-.171.753-.259 1.337-.259a3.94 3.94 0 011.31.195c.403.135.78.363 1.13.693l1.36-1.614zm-9.413-1.07v9.989h-2.44v-9.989h2.44zm-6.412-4.116v14.105h2.42V11.042h-2.42zm-3.893 5.529a2.761 2.761 0 00-.77-.858 3.702 3.702 0 00-1.093-.558 4.14 4.14 0 00-1.277-.198 5.953 5.953 0 00-2.017.322 4.577 4.577 0 00-1.634.986 4.502 4.502 0 00-1.093 1.634c-.26.65-.394 1.406-.397 2.264.003.874.131 1.64.383 2.3.254.662.608 1.215 1.064 1.658.453.447.989.781 1.607 1.002a5.85 5.85 0 002.027.326 4.29 4.29 0 00.887-.117c.316-.077.623-.188.916-.33a3.64 3.64 0 00.817-.541c.241-.216.438-.476.58-.767l.12 1.453h2.3v-9.948h-2.34l-.08 1.372zm-2.92.585c.48.003.9.09 1.26.26.346.157.654.39.9.682.24.285.423.614.54.968.24.718.24 1.495 0 2.213a2.972 2.972 0 01-.54.969 2.59 2.59 0 01-.9.682c-.36.169-.78.256-1.26.26a3.178 3.178 0 01-1.14-.206 2.747 2.747 0 01-.927-.595 2.705 2.705 0 01-.624-.952c-.15-.377-.226-.8-.23-1.274a3.47 3.47 0 01.23-1.272c.139-.356.352-.678.624-.945a2.73 2.73 0 01.927-.588 3.18 3.18 0 011.14-.202zm-11.214-4.5v2.563h-1.84v2.119h1.84v4.298c.004.827.154 1.516.444 2.061.29.548.699.954 1.227 1.218.53.262 1.153.38 1.87.353.233-.007.466-.026.697-.058.22-.03.439-.075.653-.134.228-.065.451-.143.67-.232l-.68-2.099a3.03 3.03 0 01-.583.219 2.343 2.343 0 01-.597.084c-.257 0-.48-.05-.67-.155a1.087 1.087 0 01-.447-.47c-.107-.209-.163-.471-.163-.787v-4.298h2.74v-2.119h-2.72v-2.825l-2.44.262zm-2.611 2.502v9.989h-2.441v-9.989h2.44zM41.63 29.303v-5.327c.175.267.4.498.66.68.263.183.55.33.854.433.296.106.602.184.913.233.282.044.568.066.853.067.79-.004 1.498-.138 2.11-.404a4.452 4.452 0 001.568-1.11c.429-.48.759-1.043.97-1.654.22-.63.333-1.308.333-2.038a5.795 5.795 0 00-.363-2.048 4.917 4.917 0 00-1.027-1.652 4.68 4.68 0 00-1.597-1.106c-.62-.262-1.311-.396-2.074-.4a4.178 4.178 0 00-1.16.168 3.942 3.942 0 00-1.12.518c-.362.24-.674.548-.92.908l-.16-1.372h-2.28v14.104h2.44zm3.02-6.295a2.944 2.944 0 01-1.136-.222 2.701 2.701 0 01-.887-.609 2.806 2.806 0 01-.574-.898 2.98 2.98 0 01-.203-1.096 3.118 3.118 0 01.19-1.097c.123-.333.31-.638.55-.898.24-.258.533-.46.88-.608a3.09 3.09 0 011.18-.222c.44.003.834.077 1.18.222.347.148.64.35.88.608.241.26.428.565.55.898.13.351.194.723.191 1.097.002.375-.067.747-.203 1.096a2.75 2.75 0 01-.574.898 2.664 2.664 0 01-.887.609c-.34.144-.72.218-1.136.222zm-9.353-6.437a2.76 2.76 0 00-.77-.858 3.702 3.702 0 00-1.093-.558 4.14 4.14 0 00-1.277-.198 5.953 5.953 0 00-2.017.322 4.579 4.579 0 00-1.634.986 4.502 4.502 0 00-1.093 1.634c-.26.65-.394 1.406-.397 2.264.003.874.131 1.64.383 2.3.254.662.608 1.215 1.064 1.658.453.447.989.781 1.607 1.002a5.85 5.85 0 002.027.326 4.29 4.29 0 00.887-.117c.316-.077.623-.188.916-.33.296-.143.57-.325.817-.541a2.5 2.5 0 00.58-.767l.12 1.453h2.3v-9.948h-2.34l-.08 1.372zm-2.92.585c.48.003.9.09 1.26.26.346.157.654.39.9.682.24.285.423.614.54.968.24.718.24 1.495 0 2.213a2.972 2.972 0 01-.54.969 2.591 2.591 0 01-.9.682c-.36.169-.78.256-1.26.26a3.177 3.177 0 01-1.14-.206 2.747 2.747 0 01-.927-.595 2.706 2.706 0 01-.624-.952c-.15-.377-.226-.8-.23-1.274a3.45 3.45 0 01.23-1.272 2.68 2.68 0 01.624-.945 2.73 2.73 0 01.927-.588 3.18 3.18 0 011.14-.202zM19.43 19.508l3.674-4.42h3.232v.156l-4.449 5.023 4.713 5.232h-3.41l-3.76-4.383v4.383h-2.7V3.064c-7.679.575-13.734 7.043-13.734 14.935 0 4.366 1.854 8.296 4.81 11.034v3.85A18.026 18.026 0 010 17.998C0 7.442 9.116-.869 19.46.073l-.029 19.435zm31.452-7.114c.003.32.077.585.213.797.13.207.315.374.534.48a1.601 1.601 0 001.387 0 1.31 1.31 0 00.533-.48c.137-.212.21-.478.214-.797-.004-.32-.077-.585-.214-.8a1.326 1.326 0 00-.533-.478 1.571 1.571 0 00-1.387 0 1.329 1.329 0 00-.534.478c-.136.215-.21.48-.213.8z"/><path d="M32.127 13.895c-1.379-4.888-5.158-8.759-9.97-10.23V.529c6.59 1.65 11.735 6.998 13.146 13.733-.8-.38-2.043-.588-3.136-.367h-.04zM13.189 15.09v17.136c1.502.5 3.074.753 4.655.752 5.2 0 9.775-2.698 12.427-6.78.934.494 2.11.593 3.221.46C30.457 32.225 24.587 36 17.845 36a17.649 17.649 0 01-7.342-1.59c.161-6.428-.01-12.888-.01-19.32h2.696zm-2.939-3.054c.004.353.085.646.236.88.143.23.348.414.59.532a1.768 1.768 0 001.531 0 1.46 1.46 0 00.59-.531c.15-.235.232-.528.236-.881-.004-.353-.085-.647-.236-.885a1.47 1.47 0 00-.59-.527 1.735 1.735 0 00-1.532 0c-.24.118-.444.3-.59.527-.15.238-.231.532-.235.885z"/></g><defs><clipPath id="clip0_977_8695"><path fill="#fff" d="M0 0h98v36H0z"/></clipPath></defs></svg>
